X: 20
T: Mother Goes to Market
C: trad.
O: arr. Shana Aisenberg
R: song
S: Fiddle Hell Online 2020-11-09 handout for Klezmer Jam led by Shana Aisenberg
Z: 2020 John Chambers <jc:trillian.mit.edu>
M: 2/4
L: 1/8
K: Gm^c	% Really G Misheberakh, plus G major.
%%continueall
"^A"|:\
"Gm"GD GB | cd cB | cd dd | d3 e |\
f3e f/e/d | d>c d/c/B | "A"A2c2 c2c2 | c4 |
"Gm"d>c d/c/B | B>A B/A/G | "D"GA AA | A2 (3ded |\
(3cde (3dcB | (3dcB (3BAG | G4- |[1 G4 :|[2 G
"^B"|: G Bd |\
"D"f3 e | f3e | f>e dc | d3 e |\
f>e fg | a/b/a/g/ f/g/f/e/ | f>e dc | d4 ||
d2d2 | "A"c4 | "D"(3dcB (3BAG | "Gm"B2 (3ded |\
"A"(3cde (3dcB | "D"(3dcB (3BAG | "Gm"G4- | G :| [K:=B=c][K:G]
"^C"|: D GA |:\
"G"B3 A | GG AB | "C"c3 B | "D"A4 | A>B cd | BG AF |\
[1,3 "G"Gg fe | dc BA :|[2,4 "G"G4- |[2 G :|[4 "G"G4 |]


